X:1
T:Red Haired Boy (Hornpipe), The
M:4/4
L:1/8
R:hornpipe
O:Trad. (22.1.2014/NS)
K:Amix
|: AG |"A"E2A2 ABcd|efec "D"d2 cd|"A"e2A2 ABcA|"G"BGEF G2 GF|
"A"E2A2 ABcd|efec "D"d2 cd|"A"eaab afed|c2"E"A2 "A"A2 :|
|: ef| "G"gf ga gfef|gfec "D"d2 cd|"A"e2 A2 ABcA|"G"BGEF G2 GF|
"A"E2A2 ABcd|efec "D"d2 cd|"A"eaab afed|c2"E"A2 "A"A2 :|
